packages/core/src/svgs/tokens/mono/DAG.svg

<svg width="24" height="24" viewBox="0 0 24 24" fill="none" xmlns="http://www.w3.org/2000/svg">
<path fill-rule="evenodd" clip-rule="evenodd" d="M12.0275 2L3.11084 7.02779V16.9667L11.9997 22L20.8887 16.9667V7.02779L12.0275 2ZM3.9326 7.19465L11.2104 3.06687L6.36038 11.3613L3.9326 7.19465ZM12.1326 2.75575L19.5049 7.00021H9.6437L12.1326 2.75575ZM20.3326 7.55576V15.7557L15.3326 7.55576H20.3326ZM20.0104 16.7335L12.7215 20.8446L17.5993 12.5668L20.0104 16.7335ZM11.7993 21.2058L4.51039 17.0002H14.3159L11.7993 21.2058ZM3.66594 16.4447V8.22244L8.6215 16.4447H3.66594ZM8.88816 8.18909L6.74927 11.8224L8.88816 13.0335V8.18909ZM13.7326 7.55576H9.45483V9.9224L13.7326 7.55576ZM14.6618 7.55825L14.6604 7.55576H14.6659L14.6618 7.55825ZM16.8104 11.2725L14.6618 7.55825L12.5326 8.84466L16.8104 11.2725ZM15.0604 15.7557L17.1937 12.1225L15.0604 10.9113V15.7557ZM10.2049 16.4447H14.4826L14.4715 14.0391L10.2049 16.4447ZM7.12705 12.6835L9.27705 16.4447L11.3881 15.1335L7.12705 12.6835ZM11.9715 9.15577L9.47155 10.5835V13.3835L11.9715 14.8114L14.4771 13.3835V10.5835L11.9715 9.15577Z" fill="white"/>
</svg>

<svg xmlns="http://www.w3.org/2000/svg" width="24" height="24" fill="none" viewBox="0 0 24 24">
    <path fill="#fff" fill-rule="evenodd" d="M12.028 2 3.11 7.028v9.939L12 22l8.889-5.033v-9.94zM3.932 7.195l7.277-4.128-4.85 8.294zm8.2-4.44L19.505 7H9.644zm8.2 4.8v8.2l-5-8.2zm-.323 9.179-7.289 4.11 4.878-8.277zm-8.21 4.472L4.51 17h9.806zm-8.134-4.761V8.222l4.955 8.223zm5.222-8.256L6.75 11.822l2.14 1.212zm4.845-.633H9.455v2.366zm.929.002-.002-.002h.006zm2.148 3.715-2.148-3.715-2.13 1.287zm-1.75 4.483 2.134-3.633-2.134-1.212zm-4.855.689h4.278l-.011-2.406zm-3.078-3.761 2.15 3.76 2.111-1.31zm4.845-3.528-2.5 1.428v2.8l2.5 1.427 2.505-1.428v-2.8z" clip-rule="evenodd"/>
</svg>
